res/skins/LateNight/palemoon/buttons/btn__repeat_active_12.svg

<?xml version="1.0" encoding="UTF-8" standalone="no"?>
<svg
   xmlns:dc="http://purl.org/dc/elements/1.1/"
   xmlns:cc="http://creativecommons.org/ns#"
   xmlns:rdf="http://www.w3.org/1999/02/22-rdf-syntax-ns#"
   xmlns:svg="http://www.w3.org/2000/svg"
   xmlns="http://www.w3.org/2000/svg"
   id="svg8"
   viewBox="0 0 21 18"
   version="1.1"
   height="18"
   width="21">
  <metadata
     id="metadata14">
    <rdf:RDF>
      <cc:Work
         rdf:about="">
        <dc:format>image/svg+xml</dc:format>
        <dc:type
           rdf:resource="http://purl.org/dc/dcmitype/StillImage" />
        <dc:title></dc:title>
      </cc:Work>
    </rdf:RDF>
  </metadata>
  <defs
     id="defs12" />
  <g
     style="fill:#988f86;fill-opacity:1"
     id="g6"
     shape-rendering="auto">
    <path
       id="path2"
       style="font-feature-settings:normal;font-variant-alternates:normal;font-variant-caps:normal;font-variant-ligatures:normal;font-variant-numeric:normal;font-variant-position:normal;isolation:auto;mix-blend-mode:normal;paint-order:fill markers stroke;shape-padding:0;text-decoration-color:#000000;text-decoration-line:none;text-decoration-style:solid;text-indent:0;text-orientation:mixed;text-transform:none;white-space:normal;fill:#988f86;fill-opacity:1"
       d="M 13,1.4492188 V 4 H 6.9003906 C 4.1893262,4 2,6.2607148 2,9 2,9.3724736 2.0482349,9.7336886 2.125,10.083984 L 4,9 C 4,7.3072852 5.2902549,6 6.9003906,6 H 13 v 3 l 6.541016,-3.7753906 z" />
    <path
       id="path4"
       style="font-feature-settings:normal;font-variant-alternates:normal;font-variant-caps:normal;font-variant-ligatures:normal;font-variant-numeric:normal;font-variant-position:normal;isolation:auto;mix-blend-mode:normal;paint-order:fill markers stroke;shape-padding:0;text-decoration-color:#000000;text-decoration-line:none;text-decoration-style:solid;text-indent:0;text-orientation:mixed;text-transform:none;white-space:normal;fill:#988f86;fill-opacity:1"
       d="M 18.876953,7.9179688 17,9 c 0,1.692715 -1.290255,3 -2.900391,3 H 8 V 9 L 1.4589844,12.775391 8,16.552734 V 14 h 6.099609 C 16.810674,14 19,11.739285 19,9 19,8.6283798 18.953376,8.2675235 18.876953,7.9179688 Z" />
  </g>
</svg>

<svg width="21" height="18" version="1.1" viewBox="0 0 21 18" xmlns="http://www.w3.org/2000/svg">
  <g fill="#988f86" shape-rendering="auto">
    <path d="m13 1.44922v2.55078h-6.09961c-2.71106 0-4.90039 2.26071-4.90039 5 0 0.372474 0.0482349 0.733689 0.125 1.08398l1.875-1.08398c0-1.69271 1.29025-3 2.90039-3h6.09961v3l6.54102-3.77539z" style="font-feature-settings:normal;font-variant-alternates:normal;font-variant-caps:normal;font-variant-ligatures:normal;font-variant-numeric:normal;font-variant-position:normal;isolation:auto;mix-blend-mode:normal;paint-order:fill markers stroke;shape-padding:0;text-decoration-color:#000000;text-decoration-line:none;text-decoration-style:solid;text-indent:0;text-orientation:mixed;text-transform:none;white-space:normal"/>
    <path d="m18.877 7.91797-1.87695 1.08203c0 1.69272-1.29026 3-2.90039 3h-6.09961v-3l-6.54102 3.77539 6.54102 3.77734v-2.55273h6.09961c2.71106 0 4.90039-2.26072 4.90039-5 0-0.37162-0.046624-0.732476-0.123047-1.08203z" style="font-feature-settings:normal;font-variant-alternates:normal;font-variant-caps:normal;font-variant-ligatures:normal;font-variant-numeric:normal;font-variant-position:normal;isolation:auto;mix-blend-mode:normal;paint-order:fill markers stroke;shape-padding:0;text-decoration-color:#000000;text-decoration-line:none;text-decoration-style:solid;text-indent:0;text-orientation:mixed;text-transform:none;white-space:normal"/>
  </g>
</svg>
